src/images/profile_blue.svg

<svg width="128" height="60" viewBox="0 0 128 60" fill="none" xmlns="http://www.w3.org/2000/svg">
<g filter="url(#filter0_d_24_2879)">
<rect x="14" y="11" width="100" height="32" rx="16" fill="#073042"/>
</g>
<path d="M26.8374 31.5H25.3232L28.7255 22.0455H30.3736L33.7759 31.5H32.2617L29.5888 23.7628H29.5149L26.8374 31.5ZM27.0913 27.7976H32.0032V28.9979H27.0913V27.7976ZM35.0305 31.5V24.4091H36.4108V27.3821H37.0756L39.4161 24.4091H41.1242L38.3774 27.8576L41.1565 31.5H39.4438L37.3064 28.6655H36.4108V31.5H35.0305ZM42.2287 31.5V24.4091H43.609V27.3821H44.2738L46.6143 24.4091H48.3224L45.5756 27.8576L48.3548 31.5H46.642L44.5046 28.6655H43.609V31.5H42.2287ZM51.4905 31.657C51.0412 31.657 50.6349 31.5739 50.2718 31.4077C49.9086 31.2384 49.6208 30.9937 49.4085 30.6737C49.1992 30.3536 49.0945 29.9612 49.0945 29.4964C49.0945 29.0964 49.1715 28.767 49.3254 28.5085C49.4793 28.25 49.687 28.0453 49.9486 27.8945C50.2102 27.7437 50.5026 27.6299 50.8257 27.5529C51.1489 27.476 51.4782 27.4175 51.8137 27.3775C52.2384 27.3282 52.5831 27.2882 52.8477 27.2575C53.1124 27.2236 53.3048 27.1697 53.4248 27.0959C53.5448 27.022 53.6048 26.902 53.6048 26.7358V26.7035C53.6048 26.3003 53.491 25.9879 53.2632 25.7663C53.0386 25.5447 52.7031 25.4339 52.2568 25.4339C51.7921 25.4339 51.4259 25.537 51.1581 25.7433C50.8934 25.9464 50.7103 26.1726 50.6088 26.4219L49.3115 26.1264C49.4654 25.6955 49.6901 25.3478 49.9855 25.0831C50.2841 24.8153 50.6272 24.6214 51.015 24.5014C51.4028 24.3783 51.8106 24.3168 52.2384 24.3168C52.5215 24.3168 52.8216 24.3506 53.1386 24.4183C53.4587 24.483 53.7572 24.603 54.0342 24.7784C54.3142 24.9538 54.5435 25.2047 54.722 25.5309C54.9005 25.854 54.9898 26.2741 54.9898 26.7912V31.5H53.6418V30.5305H53.5864C53.4971 30.709 53.3633 30.8845 53.1847 31.0568C53.0062 31.2292 52.777 31.3723 52.4969 31.4862C52.2168 31.6 51.8814 31.657 51.4905 31.657ZM51.7906 30.549C52.1722 30.549 52.4984 30.4736 52.7693 30.3228C53.0432 30.172 53.2509 29.975 53.3925 29.7319C53.5371 29.4857 53.6095 29.2225 53.6095 28.9425V28.0284C53.5602 28.0777 53.4648 28.1238 53.3232 28.1669C53.1847 28.2069 53.0262 28.2423 52.8477 28.2731C52.6692 28.3008 52.4954 28.3269 52.3261 28.3516C52.1568 28.3731 52.0152 28.3916 51.9014 28.407C51.6336 28.4408 51.3889 28.4978 51.1673 28.5778C50.9488 28.6578 50.7734 28.7732 50.6411 28.924C50.5118 29.0717 50.4472 29.2687 50.4472 29.5149C50.4472 29.8565 50.5734 30.1151 50.8257 30.2905C51.0781 30.4628 51.3997 30.549 51.7906 30.549ZM57.4469 34.1591C57.2407 34.1591 57.053 34.1422 56.8837 34.1083C56.7144 34.0775 56.5882 34.0437 56.5051 34.0067L56.8375 32.8757C57.0899 32.9434 57.3146 32.9727 57.5115 32.9634C57.7085 32.9542 57.8824 32.8803 58.0332 32.7418C58.1871 32.6033 58.3225 32.3771 58.4395 32.0632L58.6103 31.5923L56.0158 24.4091H57.4931L59.2889 29.9119H59.3627L61.1586 24.4091H62.6404L59.7182 32.4464C59.5828 32.8157 59.4105 33.1281 59.2012 33.3835C58.9919 33.642 58.7426 33.8359 58.4533 33.9652C58.164 34.0945 57.8285 34.1591 57.4469 34.1591ZM68.7434 27.359V28.5547H64.9025V27.359H68.7434ZM65.2903 24.4091V31.5H63.9377V24.4091H65.2903ZM69.7083 24.4091V31.5H68.3603V24.4091H69.7083ZM70.6754 25.6001V24.4091H76.6584V25.6001H74.3455V31.5H72.9975V25.6001H70.6754Z" fill="white"/>
<rect x="85" y="14" width="26" height="26" rx="13" fill="#0F4157"/>
<path fill-rule="evenodd" clip-rule="evenodd" d="M99.4301 28.9678C100.792 28.4057 101.75 27.0648 101.75 25.5C101.75 23.4289 100.071 21.75 98.0003 21.75C95.9293 21.75 94.2503 23.4289 94.2503 25.5C94.2503 27.0647 95.2087 28.4056 96.5705 28.9677C95.1758 29.1999 93.8929 29.7659 92.8086 30.5806L94.1901 32.4194C95.2514 31.6221 96.569 31.15 98.0001 31.15C99.4312 31.15 100.749 31.6221 101.81 32.4194L103.192 30.5806C102.107 29.766 100.825 29.2 99.4301 28.9678Z" fill="white"/>
<defs>
<filter id="filter0_d_24_2879" x="0" y="0" width="128" height="60" filterUnits="userSpaceOnUse" color-interpolation-filters="sRGB">
<feFlood flood-opacity="0" result="BackgroundImageFix"/>
<feColorMatrix in="SourceAlpha" type="matrix" values="0 0 0 0 0 0 0 0 0 0 0 0 0 0 0 0 0 0 127 0" result="hardAlpha"/>
<feOffset dy="3"/>
<feGaussianBlur stdDeviation="7"/>
<feColorMatrix type="matrix" values="0 0 0 0 0 0 0 0 0 0 0 0 0 0 0 0 0 0 0.08 0"/>
<feBlend mode="normal" in2="BackgroundImageFix" result="effect1_dropShadow_24_2879"/>
<feBlend mode="normal" in="SourceGraphic" in2="effect1_dropShadow_24_2879" result="shape"/>
</filter>
</defs>
</svg>

<svg width="128" height="60" fill="none" xmlns="http://www.w3.org/2000/svg"><g filter="url(#a)"><rect x="14" y="11" width="100" height="32" rx="16" fill="#073042"/></g><path d="M26.837 31.5h-1.514l3.402-9.454h1.649l3.402 9.454h-1.514l-2.673-7.737h-.074L26.837 31.5zm.254-3.702h4.912v1.2h-4.912v-1.2zm7.94 3.702v-7.09h1.38v2.972h.665l2.34-2.973h1.708l-2.747 3.449 2.78 3.642h-1.713l-2.138-2.834h-.895V31.5h-1.38zm7.198 0v-7.09h1.38v2.972h.665l2.34-2.973h1.708l-2.746 3.449 2.779 3.642h-1.713l-2.137-2.834h-.896V31.5h-1.38zm9.261.157c-.449 0-.855-.083-1.218-.25a2.053 2.053 0 0 1-.864-.733c-.209-.32-.314-.713-.314-1.178 0-.4.078-.729.231-.987.154-.259.362-.464.624-.614.261-.151.554-.265.877-.342.323-.077.652-.136.988-.175l1.034-.12c.264-.034.457-.088.577-.162.12-.074.18-.194.18-.36v-.033c0-.403-.114-.715-.342-.937-.224-.221-.56-.332-1.006-.332-.465 0-.831.103-1.099.31-.265.202-.448.429-.55.678l-1.296-.296c.153-.43.378-.778.674-1.043a2.733 2.733 0 0 1 1.029-.582 4.02 4.02 0 0 1 1.223-.184c.284 0 .584.034.9.101.32.065.62.185.896.36.28.176.51.427.688.753.178.323.268.743.268 1.26V31.5h-1.348v-.97h-.056c-.089.179-.223.354-.401.527a2.133 2.133 0 0 1-.688.43c-.28.113-.616.17-1.007.17zm.3-1.108c.382 0 .708-.075.98-.226.273-.151.48-.348.622-.591.145-.246.217-.51.217-.79v-.914c-.049.05-.144.096-.286.139a4.46 4.46 0 0 1-.475.106l-.522.079-.425.055a3.42 3.42 0 0 0-.734.17 1.26 1.26 0 0 0-.526.347c-.13.148-.194.345-.194.59 0 .343.126.601.379.777.252.172.574.258.965.258zm5.657 3.61c-.206 0-.394-.017-.563-.05a1.77 1.77 0 0 1-.379-.102l.332-1.131c.253.067.478.097.674.087a.807.807 0 0 0 .522-.221c.154-.139.29-.365.407-.679l.17-.47-2.594-7.184h1.477l1.796 5.503h.074l1.796-5.503h1.481l-2.922 8.037c-.135.37-.308.682-.517.938-.21.258-.458.452-.748.581-.289.13-.625.194-1.006.194zm11.296-6.8v1.196h-3.84v-1.196h3.84zm-3.453-2.95V31.5h-1.352v-7.09h1.352zm4.418 0V31.5H68.36v-7.09h1.348zm.967 1.191v-1.19h5.983v1.19h-2.313v5.9h-1.347v-5.9h-2.323z" fill="#fff"/><rect x="85" y="14" width="26" height="26" rx="13" fill="#0F4157"/><path fill-rule="evenodd" clip-rule="evenodd" d="M99.43 28.968a3.75 3.75 0 1 0-2.86 0 8.614 8.614 0 0 0-3.761 1.613l1.381 1.838A6.317 6.317 0 0 1 98 31.15c1.431 0 2.749.472 3.81 1.27l1.382-1.84a8.617 8.617 0 0 0-3.762-1.612z" fill="#fff"/><defs><filter id="a" x="0" y="0" width="128" height="60" filterUnits="userSpaceOnUse" color-interpolation-filters="sRGB"><feFlood flood-opacity="0" result="BackgroundImageFix"/><feColorMatrix in="SourceAlpha" values="0 0 0 0 0 0 0 0 0 0 0 0 0 0 0 0 0 0 127 0" result="hardAlpha"/><feOffset dy="3"/><feGaussianBlur stdDeviation="7"/><feColorMatrix values="0 0 0 0 0 0 0 0 0 0 0 0 0 0 0 0 0 0 0.08 0"/><feBlend in2="BackgroundImageFix" result="effect1_dropShadow_24_2879"/><feBlend in="SourceGraphic" in2="effect1_dropShadow_24_2879" result="shape"/></filter></defs></svg>
